contributed-vectors/whisk.svg

<?xml version="1.0" encoding="UTF-8" standalone="no"?>
<svg
   viewBox="0 0 192 192"
   version="1.1"
   id="svg16"
   sodipodi:docname="whisk.svg"
   xml:space="preserve"
   inkscape:export-filename="whisk.png"
   inkscape:export-xdpi="96"
   inkscape:export-ydpi="96"
   inkscape:version="1.2 (dc2aedaf03, 2022-05-15)"
   xmlns:inkscape="http://www.inkscape.org/namespaces/inkscape"
   xmlns:sodipodi="http://sodipodi.sourceforge.net/DTD/sodipodi-0.dtd"
   xmlns="http://www.w3.org/2000/svg"
   xmlns:svg="http://www.w3.org/2000/svg"><sodipodi:namedview
     id="namedview7"
     pagecolor="#505050"
     bordercolor="#eeeeee"
     borderopacity="1"
     inkscape:showpageshadow="0"
     inkscape:pageopacity="0"
     inkscape:pagecheckerboard="0"
     inkscape:deskcolor="#505050"
     showgrid="false"
     inkscape:zoom="1.7383042"
     inkscape:cx="90.605547"
     inkscape:cy="20.709839"
     inkscape:window-width="1884"
     inkscape:window-height="1052"
     inkscape:window-x="36"
     inkscape:window-y="0"
     inkscape:window-maximized="1"
     inkscape:current-layer="svg16" /><defs
     id="defs4"><style
       id="style2">.a{fill:none;stroke:#b1b5bd;stroke-linecap:round;stroke-linejoin:round;isolation:isolate;opacity:0.63;}</style></defs><rect
     class="a"
     x="20"
     y="20"
     width="152"
     height="152"
     rx="10"
     id="rect6"
     style="fill:#99dc9b;stroke:none;opacity:1;fill-opacity:1" /><path
     id="rect6-3"
     style="opacity:1;isolation:isolate;fill:#ffffff;stroke:none;stroke-linecap:round;stroke-linejoin:round"
     class="a"
     d="M 125.37109 36.470703 C 120.03271 36.470703 115.45709 41.292042 113.33984 49.160156 L 97.009766 120.13281 C 96.840095 120.76644 96.288375 120.72292 96.203125 120.04688 L 86.042969 66.275391 C 85.111746 59.338452 82.756909 55.193359 77.333984 55.193359 C 72.080851 55.193359 67.563068 59.126762 65.826172 65.513672 L 53.630859 113.3418 C 53.461308 114.01929 52.952755 114.01929 52.783203 113.3418 L 45.646484 79.525391 C 44.290782 73.94212 40.56198 70.386719 36.15625 70.386719 C 30.224465 70.386719 23.511719 76.953379 23.511719 82.199219 C 23.511719 83.552887 23.849087 84.060547 24.697266 84.060547 C 26.05298 84.060547 26.731075 82.199219 28.933594 82.199219 C 31.306429 82.199219 33.128193 85.976274 34.017578 89.572266 L 43.029297 130.41992 C 44.722906 137.35613 47.474525 140.36968 52.423828 140.5293 C 57.46532 140.5293 59.826445 137.90404 60.978516 133.42383 L 74.189453 81.902344 C 74.358407 81.268016 74.909611 81.267302 74.994141 81.943359 L 83.511719 136.11523 C 83.944448 139.40405 85.011755 142.6011 86.8125 145.38867 C 88.687382 148.28924 90.341721 149.58008 94.783203 149.58008 C 103.96809 148.81087 105.35322 142.23615 108.39453 128.22656 C 110.4221 118.88683 115.08632 97.413481 122.38867 63.804688 C 122.51578 63.296508 123.15039 63.381612 123.15039 63.931641 L 123.49609 124.20117 C 123.62379 130.88498 127.22471 135.03125 133.24023 135.03125 C 137.43443 135.03125 141.96622 131.68872 143.49219 126.40234 L 153.10938 93.492188 C 153.27797 92.85858 153.82799 92.900116 153.87109 93.576172 L 156.20117 128.68555 C 156.62565 135.20004 161.92095 140.5293 168.02148 140.5293 C 169.28737 140.5293 170.67552 139.93281 172 138.94336 L 172 119.0332 L 171.2832 120.98633 C 171.02852 121.62067 170.52042 121.57852 170.47852 120.90234 L 167.85156 86.34375 C 167.38524 80.125434 163.23322 76.318359 156.96289 76.318359 C 151.79502 76.318359 147.72745 79.701514 146.07617 85.074219 L 138.57812 108.60352 C 138.40846 109.19528 137.81445 109.11048 137.81445 108.43359 L 136.76172 50.261719 C 136.59217 41.717451 130.5391 36.470703 125.37109 36.470703 z " /><rect
     class="a"
     x="20"
     y="-185.01695"
     width="152"
     height="152"
     rx="10"
     id="rect236"
     style="opacity:1;fill:#71a372;stroke:none" /><path
     id="path238"
     style="opacity:1;isolation:isolate;fill:#ffffff;stroke:none;stroke-linecap:round;stroke-linejoin:round"
     class="a"
     d="m 125.37109,-168.54625 c -5.33838,0 -9.914,4.82134 -12.03125,12.68946 l -16.330074,70.972651 c -0.169671,0.63363 -0.721391,0.59011 -0.806641,-0.08593 L 86.042969,-138.74156 c -0.931223,-6.93694 -3.28606,-11.08203 -8.708985,-11.08203 -5.253133,0 -9.770916,3.9334 -11.507812,10.32031 l -12.195313,47.828131 c -0.169551,0.67749 -0.678104,0.67749 -0.847656,0 l -7.136719,-33.816411 c -1.355702,-5.58327 -5.084504,-9.13867 -9.490234,-9.13867 -5.931785,0 -12.644531,6.56666 -12.644531,11.8125 0,1.35367 0.337368,1.86133 1.185547,1.86133 1.355714,0 2.033809,-1.86133 4.236328,-1.86133 2.372835,0 4.194599,3.77705 5.083984,7.37305 l 9.011719,40.847651 c 1.693609,6.93621 4.445228,9.94976 9.394531,10.10938 5.041492,0 7.402617,-2.62526 8.554688,-7.10547 l 13.210937,-51.521491 c 0.168954,-0.63432 0.720158,-0.63504 0.804688,0.041 l 8.517578,54.171871 c 0.432729,3.28882 1.500036,6.48587 3.300781,9.27344 1.874882,2.90057 3.529221,4.19141 7.970703,4.19141 9.184887,-0.76921 10.570017,-7.34393 13.611327,-21.35352 2.02757,-9.33973 6.69179,-30.813081 13.99414,-64.421871 0.12711,-0.50818 0.76172,-0.42308 0.76172,0.12695 l 0.3457,60.269531 c 0.1277,6.68381 3.72862,10.83008 9.74414,10.83008 4.1942,0 8.72599,-3.34253 10.25196,-8.62891 l 9.61719,-32.910151 c 0.16859,-0.63361 0.71861,-0.59207 0.76171,0.084 l 2.33008,35.109381 c 0.42448,6.51449 5.71978,11.84375 11.82031,11.84375 1.26589,0 2.65404,-0.59649 3.97852,-1.58594 v -19.91016 l -0.7168,1.95313 c -0.25468,0.63434 -0.76278,0.59219 -0.80468,-0.08399 l -2.62696,-34.558591 c -0.46632,-6.21832 -4.61834,-10.02539 -10.88867,-10.02539 -5.16787,0 -9.23544,3.38315 -10.88672,8.75586 l -7.49805,23.529301 c -0.16966,0.59176 -0.76367,0.50696 -0.76367,-0.16993 l -1.05273,-58.171871 c -0.16955,-8.54427 -6.22262,-13.79102 -11.39063,-13.79102 z" /></svg>

<svg xmlns="http://www.w3.org/2000/svg" xml:space="preserve" id="svg16" version="1.1" viewBox="0 0 192 192"><defs id="defs4"><style id="style2">.a{fill:none;stroke:#b1b5bd;stroke-linecap:round;stroke-linejoin:round;isolation:isolate;opacity:.63}</style></defs><rect id="rect6" width="152" height="152" x="20" y="20" class="a" rx="10" style="fill:#99dc9b;stroke:none;opacity:1;fill-opacity:1"/><path id="rect6-3" d="M125.371 36.47c-5.338 0-9.914 4.822-12.031 12.69l-16.33 70.973c-.17.633-.722.59-.807-.086l-10.16-53.772c-.931-6.937-3.286-11.082-8.709-11.082-5.253 0-9.77 3.934-11.508 10.32l-12.195 47.829c-.17.677-.678.677-.848 0l-7.137-33.817c-1.355-5.583-5.084-9.138-9.49-9.138-5.932 0-12.644 6.566-12.644 11.812 0 1.354.337 1.862 1.185 1.862 1.356 0 2.034-1.862 4.237-1.862 2.372 0 4.194 3.777 5.084 7.373l9.011 40.848c1.694 6.936 4.446 9.95 9.395 10.11 5.041 0 7.402-2.626 8.555-7.106l13.21-51.522c.17-.634.72-.635.805.041l8.518 54.172c.432 3.29 1.5 6.486 3.3 9.274 1.875 2.9 3.53 4.191 7.971 4.191 9.185-.77 10.57-7.344 13.612-21.353 2.027-9.34 6.691-30.814 13.994-64.422.127-.508.761-.423.761.127l.346 60.27c.128 6.683 3.729 10.83 9.744 10.83 4.194 0 8.726-3.343 10.252-8.63l9.617-32.91c.169-.633.719-.592.762.084l2.33 35.11c.425 6.514 5.72 11.843 11.82 11.843 1.266 0 2.655-.596 3.979-1.586v-19.91l-.717 1.953c-.254.635-.763.593-.804-.084l-2.627-34.558c-.467-6.219-4.619-10.026-10.89-10.026-5.167 0-9.235 3.384-10.886 8.756l-7.498 23.53c-.17.591-.764.506-.764-.17l-1.052-58.172c-.17-8.545-6.223-13.791-11.39-13.791z" class="a" style="opacity:1;isolation:isolate;fill:#fff;stroke:none;stroke-linecap:round;stroke-linejoin:round"/><rect id="rect236" width="152" height="152" x="20" y="-185.017" class="a" rx="10" style="opacity:1;fill:#71a372;stroke:none"/><path id="path238" d="M125.371-168.546c-5.338 0-9.914 4.821-12.031 12.69L97.01-84.885c-.17.633-.722.59-.807-.086l-10.16-53.772c-.931-6.937-3.286-11.082-8.709-11.082-5.253 0-9.77 3.934-11.508 10.32L53.631-91.674c-.17.677-.678.677-.848 0l-7.137-33.817c-1.355-5.583-5.084-9.138-9.49-9.138-5.932 0-12.644 6.566-12.644 11.812 0 1.354.337 1.862 1.185 1.862 1.356 0 2.034-1.862 4.237-1.862 2.372 0 4.194 3.777 5.084 7.373l9.011 40.848c1.694 6.936 4.446 9.95 9.395 10.11 5.041 0 7.402-2.626 8.555-7.106l13.21-51.522c.17-.634.72-.635.805.041l8.518 54.172c.432 3.29 1.5 6.486 3.3 9.274 1.875 2.9 3.53 4.191 7.971 4.191 9.185-.77 10.57-7.344 13.612-21.353 2.027-9.34 6.691-30.813 13.994-64.422.127-.508.761-.423.761.127l.346 60.27c.128 6.683 3.729 10.83 9.744 10.83 4.194 0 8.726-3.343 10.252-8.63l9.617-32.91c.169-.633.719-.592.762.084l2.33 35.11c.425 6.514 5.72 11.843 11.82 11.843 1.266 0 2.655-.596 3.979-1.586v-19.91l-.717 1.953c-.254.635-.763.593-.804-.084l-2.627-34.558c-.467-6.219-4.619-10.026-10.89-10.026-5.167 0-9.235 3.384-10.886 8.756l-7.498 23.53c-.17.591-.764.507-.764-.17l-1.052-58.172c-.17-8.544-6.223-13.791-11.39-13.791z" class="a" style="opacity:1;isolation:isolate;fill:#fff;stroke:none;stroke-linecap:round;stroke-linejoin:round"/></svg>
